dist/img/svg/i-company-1.svg

<svg width="24" height="24" viewBox="0 0 24 24" fill="none" xmlns="http://www.w3.org/2000/svg">
    <path d="M5.43359 3L1.78125 9.08789L12 21.5801L12.7734 20.6328L22.2188 9.08789L18.5664 3H5.43359ZM7.76562 5H16.2344L14.4336 8H9.56641L7.76562 5ZM6 5.94336L7.23438 8H4.76562L6 5.94336ZM18 5.94336L19.2344 8H16.7656L18 5.94336ZM5.10938 10H8.23633L9.80078 15.7344L5.10938 10ZM10.3086 10H13.6562L11.9023 15.8438L10.3086 10ZM15.7441 10H18.8906L13.9219 16.0742L15.7441 10Z" fill="white"/>
</svg>

<svg width="24" height="24" viewBox="0 0 24 24" fill="none" xmlns="http://www.w3.org/2000/svg"><path d="M5.434 3L1.78 9.088 12 21.58l.773-.947L22.22 9.088 18.566 3H5.434zm2.332 2h8.468l-1.8 3H9.566l-1.8-3zM6 5.943L7.234 8H4.766L6 5.943zm12 0L19.234 8h-2.468L18 5.943zM5.11 10h3.126l1.565 5.734L5.109 10zm5.199 0h3.347l-1.754 5.844L10.31 10zm5.435 0h3.147l-4.97 6.074L15.745 10z" fill="#fff"/></svg>
